packages/icons/svg/Fill/batttery-charging.svg

<svg width="24" height="24" viewBox="0 0 24 24" fill="none" xmlns="http://www.w3.org/2000/svg">
<g id="Icon/Fill/batttery-charging">
<path id="Mask" fill-rule="evenodd" clip-rule="evenodd" d="M11.277 13H7C6.644 13 6.314 12.81 6.135 12.502C5.956 12.194 5.955 11.813 6.132 11.504L9.277 6H4.167C2.972 6 2 7.089 2 8.429V15.571C2 16.911 2.972 18 4.167 18H8.42L11.277 13ZM15.8336 6H11.5806L8.7236 11H13.0006C13.3566 11 13.6866 11.19 13.8646 11.498C14.0436 11.806 14.0446 12.187 13.8686 12.496L10.7236 18H15.8336C17.0286 18 18.0006 16.911 18.0006 15.571V8.429C18.0006 7.089 17.0286 6 15.8336 6ZM20.0001 10C20.0001 9.448 20.4481 9 21.0001 9C21.5521 9 22.0001 9.448 22.0001 10V14C22.0001 14.552 21.5521 15 21.0001 15C20.4481 15 20.0001 14.552 20.0001 14V10Z" fill="#000000"/>
</g>
</svg>

<svg fill="none" height="24" viewBox="0 0 24 24" width="24" xmlns="http://www.w3.org/2000/svg"><path clip-rule="evenodd" d="m11.2769 13h-4.27702c-.356 0-.686-.19-.865-.498s-.18-.689-.003-.998l3.145-5.504h-5.11c-1.195 0-2.167 1.089-2.167 2.429v7.142c0 1.34.972 2.429 2.167 2.429h4.253zm4.5566-7h-4.253l-2.85702 5h4.27702c.356 0 .686.19.864.498.179.308.18.689.004.998l-3.145 5.504h5.11c1.195 0 2.167-1.089 2.167-2.429v-7.142c0-1.34-.972-2.429-2.167-2.429zm4.1665 4c0-.552.448-1 1-1s1 .448 1 1v4c0 .552-.448 1-1 1s-1-.448-1-1z" fill="#6b7280" fill-rule="evenodd"/></svg>
